T: Plethen Peswar Luf
M: 4/4
L: 1/8
K: Amaj
(3AAA c>e a>ec>e | (3AAA d>f a>fd>f | (3AAA c>e a>ec>e | (3BBB c>e (3BBB c>e |(3AAA c>e a>ec>e | (3AAA d>f a>fd>f | (3efg (3agf e>dc>B | (3Ace (3aec A2 :|a>ec>e a>ec>e | a>fd>f a>fd>f | a>ec>e a>ec>e | (3BBB c>e (3BBB c>e |a>ec>e a>ec>e | a>fd>f a>fd>f | (3efg (3agf e>dc>B | (3Ace (3aec A2 :|AAA c2 e AAA c2 e | BBB d2 f BBB d2 f | AAA c2 e AAA c2 e | B2 e ccc BBB c2 e |AAA c2 e AAA c2 e | BBB d2 f BBB d2 f | (3efg (3agf e>dc>B | (3Ace (3aec A2 :|(3aee (3cee (3aee (3cee | (3aff (3dff (3aff (3dff | (3aee (3cee (3aee (3cee | (3BBB c>e (3BBB c>e | (3aee (3cee (3aee (3cee | (3aff (3dff (3aff (3dff | (3efg (3agf e>dc>B | (3Ace (3aec A2 :|
